X:1
T:Sechs vierstimmige Lieder
T:Waldeinsamkeit
T:Moritz Hauptmann
T:Ludwig Tieck
T:Waldeinsamkeit, Op. 32, No. 6
T:CPDL   —   Creative Commons Attribution Non Commercial 3.0
T:CPDL   —   Creative Commons Attribution Non Commercial 3.0
T:CPDL   —   Creative Commons Attribution Non Commercial 3.0
T:CPDL   —   Creative Commons Attribution Non Commercial 3.0
T:CPDL   —   Creative Commons Attribution Non Commercial 3.0
T:CPDL   —   Creative Commons Attribution Non Commercial 3.0
C:Moritz Hauptmann
Z:Ludwig Tieck
Z:CPDL   —   Creative Commons Attribution Non Commercial 3.0
%%score [ 1 2 3 4 ]
L:1/8
Q:1/4=56
M:4/4
K:E
V:1 treble nm="Sopran"
V:2 treble nm="Alt"
V:3 treble-8 nm="Tenor"
V:4 bass nm="Bass"
V:1
!mf!"^Andante sostenuto" B2 | G3 F E2 z2 | z2 E2 E2 FG | AB"^ten." c4 BA | G z z2 z4 | %5
w: Wald-|ein- sam- keit,|die mich er- *|freut, so mor- gen wie|heut,|
 z2 B2!<(! e3 f!<)! |!>(! d4!>)! z2!<(! B2 | B2 B2!<)!!f!!>(! c4- | c!>)! z!mf! BB"^dim." e2 GA | %9
w: in ew'- ger|Zeit. Hier|wohnt kein Neid,|_ mir ge- schieht kein _|
 B4 z2!<(! B2 | B2!<)! B2!f!!>(! c4-!>)! | c z!mf! B2"^dim." e2 GA | B2"^cresc." (!>!c4 e)d | %13
w: Leid, o|wie mich freut|_ Wald- ein- sam- *|keit, al- * le-|
!f!!>(! d4!>)! z2!p! G2 | A2!<(! ^A2 B4-!<)! | B2 =AG F2 !>!cB |"^dim." B6 ^A2 | B4 z2 | %18
w: zeit. Wie|bist du weit,|_ so _ weit, Wald- *|ein- sam-|keit.|
!mf!!<(! B2 | B2!<)! B2!f!!>(! c4-!>)! | c z!mf! B2 e2 GA | B2 !>!c4"^cresc." ed | %22
w: Hier|wohnt kein Neid,|_ kein Neid, mir ge-|schieht hier kein _|
!f!!>(! d4!>)! z2!mf! G2 | A2 ^A2 B2 ^B2 |"^cresc." c2 d2 (e2 d)c | B!f!E G4 F2 | E4 z4 | %27
w: Leid. O|Freud', o Freud', o|einz'- ge, einz'- * ge|Freud', o einz'- ge|Freud'.|
 z4 z2"^dol." e2 |!>(! d3!>)! c BBAG | FA (c4 B)"^crescendo"A | AG (=d4 B)G | E2!f! e4 c2 | %32
w: Wald-|ein- sam- keit, die mich er-|freut, in ew'- * ger|Zeit, in ew'- * ger|Zeit, mich er-|
 A4 z2"^dol." F2 | E2 G2!<(! B4-!<)! |!>(! B2 AG!>)! F2 cB | B2 e2 B2!<(! AG!<)! | %36
w: freut. Hier|wohnt kein Neid,|_ mir ge- schieht kein _|Leid, o Freud', o _|
 (B2 A)"^cresc."G F2 G2 | E2 z2 z2!f! e2 | g3 f e2 z2 | z2"^dol." c2 E2 GF | E4 z4 |] %41
w: einz'- * ge, einz'- ge|Freud', o|einz'- ge Freud',|Wald- ein- sam- *|keit.|
V:2
 z2 | z4 z2!mf! E2 | D3 C B,CDE | FG"^ten." A4 GF | E2 E2 B3 c | B2!<(! B4!<)! ^A2 | %6
w: |Wald-|ein- sam- keit, die mich er-|freut, so mor- gen wie|heut, in ew'- ger|Zeit, mich er-|
!>(! F4!>)! z2!<(! F2 | F2 F2!<)!!f!!>(! A4- | A!>)! z!mf! FF"^dim." E2 E2 | F4 z2!<(! F2 | %10
w: freut. Hier|wohnt kein Neid,|_ mir ge- schieht kein|Leid, o|
 F2!<)! F2!f!!>(! A4-!>)! | A z!mf! F2"^dim." E2 E2 | F2"^cresc." !>!A4 A2 |!f!!>(! G4!>)! z4 | %14
w: wie mich freut|_ Wald- ein- sam-|keit, al- le-|zeit.|
 z4 z2!p! D2 |!<(! E2 ^E2!<)! F4 | B,2"^dim." (E2 D2) =GF | F4 z2 |!mf!!<(! F2 | %19
w: Wie|bist du weit,|Wald- ein- * sam _|keit.|Hier|
 F2!<)! F2!f!!>(! A4-!>)! | A z!mf! F2 E2 EE | F2 !>!A4"^cresc." A2 |!f!!>(! G4!>)! z4 | %23
w: wohnt kein Neid,|_ kein Neid, mir ge-|schieht hier kein|Leid.|
 z2!mf! E2 D2 F2 |"^cresc." E2 A2 G2 ^^F2 | G!f!B, E4 D2 | B,4 z2"^dol." B2 | !>!G3 F E2 E2 | %28
w: O Freud', o|Freud', o einz'- ge|Freud', o einz'- ge|Freud'. Wald-|ein- sam- keit, so|
 E6 E2- | E E2 E"^crescendo" E4- | EEEE E3 G | A2!f! c4 A2 | E4 z2"^dol." C2 | %33
w: weit, die|_ mich er- freut,|_ in ew'- ger, ew'- ger|Zeit, mich er-|freut. Hier|
 B,2 z2 z2!<(! GE!<)! | D2 z2 z2!p! A2 | G2 z2 z2!<(! FE!<)! | D3"^cresc." E F2 D2 | %37
w: wohnt kein _|Neid, kein|Leid, o *|einz'- ge, einz'- ge|
 B,2!f! G2 B2 ^A2 | B3 A G2 z2 | z2"^dol." E2 B,2 D2 | E4 z4 |] %41
w: Freud', o Freud', o|einz'- ge Freud|Wald- ein- sam-|keit.|
V:3
 z2 | z4 z2!mf! G2 | A2 ^A2!<(! B2 =AG!<)! | F3 E D2 EF | GA"^ten." B4 AG | FA!<(! G4!<)! FE | %6
w: |Wald-|ein- sam- keit, die _|mich, die mich er- *|freut, so mor- gen wie|heut, in ew'- ger _|
!>(! B4!>)! z2!<(! d2 | d2 d2!<)!!f!!>(! e4- | e!>)! z!mf! dd"^dim." B2 e2 | d4 z2!<(! d2 | %10
w: Zeit. Hier|wohnt kein Neid,|_ mir ge- schieht kein|Leid, o|
 d2!<)! d2!f!!>(! e4-!>)! | e z!mf! d2"^dim." B2 e2 | d2"^cresc." (!>!e4 c)d | %13
w: wie mich freut|_ Wald- ein- sam-|keit, al- * le-|
!f!!>(! ^B4!>)! z2!p! G2 | A2!<(! ^A2 B4-!<)! | B6 !>!=A2 | G2"^dim." =G2 F2 E2 | D4 z2 | %18
w: zeit. Wie|bist du weit,|_ so|weit, Wald- ein- sam-|keit.|
!mf!!<(! d2 | d2!<)! d2!f!!>(! e4-!>)! | e z!mf! d2 B2 ee | d2 !>!e4"^cresc." cd | %22
w: Hier|wohnt kein Neid,|_ kein Neid, mir ge-|schieht hier kein _|
!f!!>(! ^B4!>)! z4 | z2!mf! c2 =B2 d2 |"^cresc." c2 f2 e3 E | E!f!G B4 A2 | G4 z4 | %27
w: Leid.|O Freud', o|Freud', o einz'- ge|Freud', o einz'- ge|Freud'.|
 z4 z2"^dol." c2 |!>(! B3!>)! A GGAB | c3 A F2"^crescendo" c2 | =d3 B G2!f! d2 | e3 c A2 z2 | %32
w: Wald-|ein- sam- keit, die mich er-|freut, in ew'- ger,|ew'- ger Zeit, in|ew'- ger Zeit,|
 z4 z2"^dol." A2 | G2 z2 z2!<(! EG!<)! | F2 z2 z2!p! D2 | E2 z2 z2!<(! B2!<)! | %36
w: Hier|wohnt kein _|Neid, kein|Leid, o|
 F3"^cresc." G A2 B2 | G2!f! B2 g2 fe | e3 d e2 z2 | z2"^dol." F2 G2 BA | G4 z4 |] %41
w: einz'- ge, einz'- ge|Freud', o Freud', o _|einz'- ge Freud',|Wald- ein- sam- *|keit.|
V:4
 z2 | z4 z2!mf! E,2 | F,2 ^^F,2!<(! G,2 ^F,E,!<)! | D,3 C, B,,2 C,D, | E,F,"^ten." G,4 F,E, | %5
w: |Wald-|ein- sam- keit, die _|mich, die mich er- *|freut, so mor- gen wie|
 D,F,!<(! E,4!<)! D,C, |!>(! B,,4!>)! z2!<(! B,2 | B,2 B,2!<)!!f!!>(! A,4- | %8
w: heut, in ew'- ger _|Zeit. Hier|wohnt kein Neid,|
 A,!>)! z!mf! B,B,"^dim." G,2 C2 | B,4 z2!<(! B,2 | B,2!<)! B,2!f!!>(! A,4-!>)! | %11
w: _ mir ge- schieht kein|Leid, o|wie mich freut|
 A, z!mf! B,2"^dim." G,2 C2 | B,2"^cresc." (A,2 G,2) F,2 |!f!!>(! G,4!>)! z4 | z4 z2!p! B,,2 | %15
w: _ Wald- ein- sam-|keit, al- * le-|zeit.|Wie|
 C,2 ^^C,2 D,4 | E,2"^dim." B,,4 B,,2 | B,,4 z2 |!mf!!<(! B,2 | B,2!<)! B,2!f!!>(! A,4-!>)! | %20
w: bist du weit,|Wald- ein- sam-|keit.|Hier|wohnt kein Neid,|
 A, z!mf! B,2 G,2 CC | B,2 (!>!A,2"^cresc." G,2) F,2 |!f!!>(! G,4!>)! z4 | z4 z2!mf! G,2 | %24
w: _ kein Neid, mir ge-|schieht hier _ kein|Leid.|O|
 A,2"^cresc." ^B,,2 C,2 ^A,,2 |!f! B,,6 B,,2 | E,4 z4 | z8 | z2"^dol." E,3 D,C,B,, | %29
w: Freud', o einz'- ge,|einz'- ge|Freud'.||Wald- ein- * sam-|
 A,,4- A,,A,,"^crescendo"A,,A,, | B,,4- B,,B,,B,,B,, | C,2!f! A,,2- A,,C, E,A, | %32
w: keit, _ die mich er-|freut, _ in ew'- ger|Zeit, mich _ _ er- *|
 C4 z2"^dol." A,,2 | B,,2 z2 z2!<(! B,,2!<)! | B,,2 z2 z2!p! B,,2 | B,,2 z2 z2!<(! B,,2!<)! | %36
w: freut. Hier|wohnt kein|Neid, kein|Leid, o|
"^cresc." B,,6 B,,2 | E,2 z2 z2!f! C2 | B,3 ^B, C2 z2 | z2"^dol." ^A,,2 B,,2 B,,2 | E,,4 z4 |] %41
w: einz'- ge|Freud', o|einz'- ge Freud',|Wald- ein- sam-|keit.|

